X:1
T:O Holy Night
T:O Holy Night
T:Adolphe-Charles Adam
C:Adolphe-Charles Adam
%%score 1 { 2 | ( 3 4 ) }
L:1/8
Q:1/4=80
M:6/8
K:C
V:1 treble transpose=-9 nm="Alto Saxophone" snm="A. Sax."
V:2 treble nm="Piano" snm="Pno."
V:3 bass 
V:4 bass 
V:1
[K:A] z6 |!mp! c3 c2 c | e2- e4 | f2 f d2 (f | a3- a- a2) | e2 (e c2 B) | A3 (c2 d | e3) (d2 B | %8
!p! A2-) A4 | z6 |!mp!"^A" c3 c2 c | e2- e4 | f2 f (d2 f |!mp! a3- a- a2) | e2 (e ^d2 c) | %15
 g3 (e2 f | g3) (a2 g |!mp! c2-) c4 | z3 !tenuto!c2 e | (e3 f-) f2 | (B2- B e3) | (f2 e) (a2 c) | %22
 (f3 e2) e | (e2- e f3) | (B3 e3) | (f2 e) a2 c | e2- e4 |!mf!"^B" a6- | a3 (g2 f) | g6- | g6 | %31
 b6- | b2 f !tenuto!f2 (f | a6- | a6) |!f! (c'6 | b6 | a6- | a3) (g2 f | e6- | e2) (e f2 e | %41
!mp! e6- | (e3) a3 |!mf!"^C" b4- b2 | b2- b) (e3 |!f! e'6- | e'3) (c'2 b |!mf! a6) | g3 (a2 b | %49
!mp! a6) | b6- | b3 (e3 | e'4- e'2) | d'2 d' (c'2 b | a6) | g3 (a2 b | a6- | a4) z2 |] %58
V:2
 z6 | E3- E- E2 | G2- G4 | A6 | c3- c- c2 | G2- G4 | C6 | G3- G- G2 | C2- C4 | C6 | E3- E- E2 | %11
 G2- G4 | A6 | c3- c- c2 | G2- G4 | B6 | B3- B- B2 | E2- E4 | E6 | G3 A- A2 | D2- D G3 | A3 c3 | %22
 A3 G- G2 | G2- G A3 | D3 G3 | A3 c- c2 | G2- G4 |!mf! [Ac][Ac][Ac] [Ac][Ac][Ac] | %28
 [Ac][Ac][Ac] [Ac][Ac][Ac] | [GB][GB][GB] [GB][GB][GB] | [GB][GB][GB] [GB][GB][GB] | %31
 [FA][FA][FA] [FA][FA][FA] | [FA][FA][FA] [FA][FA][FA] | [EA][EA][EA] [EA][EA][EA] | %34
 [EA][EA][EA] [EA][EA][EA] | [EGe]2- [EGe]4 | [DGd]6 | [EAc]3- [EAc]- [EAc]2 | [FA]2- [FA]4 | %39
 [EG]6 | [DG]3- [DG]- [DG]2 | [EG]2- [EG]4 | [EG]6 | [DG]3- [DG]- [DG]2 | [DG]2- [DG]4 | [EG]6 | %46
 [FA]3- [FA]- [FA]2 | [EG]2- [EG]4 | [DG]6 | [EG]3- [EG]- [EG]2 | [DG]2- [DG]4 | [DG]6 | %52
 [EG]3- [EG]- [EG]2 | [FA]2- [FA]4 | [EG]6 | [GB]3- [GB]- [GB]2 |!p! [Gc]2- [Gc]4 |!pp! [Gc]4 z2 |] %58
V:3
 z/ G,/C/[I:staff -1]E/G/c/[I:staff +1] C,/G,/C/[I:staff -1]E/G/c/ | %1
[I:staff +1] z/ G,/C/[I:staff -1]E/G/c/[I:staff +1] C,/G,/C/[I:staff -1]E/G/c/ | %2
[I:staff +1] z/ (G,/C/[I:staff -1]E/G/c/)[I:staff +1] C,/G,/C/[I:staff -1]E/G/c/ | %3
[I:staff +1] z/ C,/F,/[I:staff -1]F/A/c/[I:staff +1] F,,/C,/F,/C/[I:staff -1]F/A/ | %4
[I:staff +1] z/ G,/C/[I:staff -1]E/G/c/[I:staff +1] C,/G,/C/[I:staff -1]E/G/c/ | %5
[I:staff +1] z/ G,/C/[I:staff -1]E/G/c/[I:staff +1] C,/G,/C/[I:staff -1]E/G/c/ | %6
[I:staff +1] z/ G,/C/[I:staff -1]E/G/c/[I:staff +1] C,/G,/C/[I:staff -1]E/G/c/ | %7
[I:staff +1] z/ D,/G,/B,/[I:staff -1]D/G/[I:staff +1] G,,/D,/G,/B,/[I:staff -1]D/G/ | %8
[I:staff +1] z/ G,/C/[I:staff -1]E/G/c/[I:staff +1] C,/G,/C/[I:staff -1]E/G/c/ | %9
[I:staff +1] z/ G,/C/[I:staff -1]E/G/c/[I:staff +1] C,/G,/C/[I:staff -1]E/G/c/ | %10
[I:staff +1] z/ G,/C/[I:staff -1]E/G/c/[I:staff +1] C,/G,/C/[I:staff -1]E/G/c/ | %11
[I:staff +1] z/ G,/C/[I:staff -1]E/G/c/[I:staff +1] C,/G,/C/[I:staff -1]E/G/c/ | %12
[I:staff +1] z/ C,/F,/A,/C/[I:staff -1]F/[I:staff +1] F,,/C,/F,/A,/C/[I:staff -1]F/ | %13
[I:staff +1] z/ G,/C/[I:staff -1]E/G/c/[I:staff +1] C,/G,/C/[I:staff -1]E/G/c/ | %14
[I:staff +1] z/ G,/C/[I:staff -1]E/G/c/[I:staff +1] C,/G,/C/[I:staff -1]E/G/c/ | %15
[I:staff +1] z/ B,/[I:staff -1]E/G/B/e/[I:staff +1] E,/B,/[I:staff -1]E/G/B/e/ | %16
[I:staff +1] z/ ^F,/B,/[I:staff -1]^D/^F/B/[I:staff +1] B,,/F,/B,/[I:staff -1]D/F/B/ | %17
[I:staff +1] z/ B,/[I:staff -1]E/G/B/e/[I:staff +1] E,/B,/[I:staff -1]E/G/B/e/ | %18
[I:staff +1] z/ B,/[I:staff -1]E/G/B/e/[I:staff +1] E,/B,/[I:staff -1]E/G/B/e/ | %19
[I:staff +1] z/ D,/G,/B,/[I:staff -1]D/G/[I:staff +1] G,,/D,/G,/B,/[I:staff -1]D/G/ | %20
[I:staff +1] z/ D,/G,/B,/[I:staff -1]D/G/[I:staff +1] G,,/D,/G,/B,/[I:staff -1]D/G/ | %21
[I:staff +1] z/ G,/C/[I:staff -1]E/G/c/[I:staff +1] C,/G,/C/[I:staff -1]E/G/c/ | %22
[I:staff +1] z/ G,/C/[I:staff -1]E/G/c/[I:staff +1] C,/G,/C/[I:staff -1]E/G/c/ | %23
[I:staff +1] z/ D,/G,/B,/[I:staff -1]D/G/[I:staff +1] G,,/D,/G,/B,/[I:staff -1]D/G/ | %24
[I:staff +1] z/ D,/G,/B,/[I:staff -1]D/G/[I:staff +1] G,,/D,/G,/B,/[I:staff -1]D/G/ | %25
[I:staff +1] z/ G,/C/[I:staff -1]E/G/c/[I:staff +1] C,/G,/C/[I:staff -1]E/G/c/ | %26
[I:staff +1] z/ G,/C/[I:staff -1]E/G/c/[I:staff +1] C,/G,/C/[I:staff -1]E/G/c/ | %27
[I:staff +1] z/ E,/A,/C/[I:staff -1]E/A/[I:staff +1] A,,/E,/A,/C/[I:staff -1]E/A/ | %28
[I:staff +1] z/ E,/A,/C/[I:staff -1]E/A/[I:staff +1] A,,/E,/A,/C/[I:staff -1]E/A/ | %29
[I:staff +1] z/ B,,/E,/G,/B,/[I:staff -1]E/[I:staff +1] E,,/B,,/E,/G,/B,/[I:staff -1]E/ | %30
[I:staff +1] z/ B,,/E,/G,/B,/[I:staff -1]E/[I:staff +1] E,,/B,,/E,/G,/B,/[I:staff -1]E/ | %31
[I:staff +1] z/ A,,/D,/F,/A,/[I:staff -1]D/[I:staff +1] D,,/A,,/D,/F,/A,/[I:staff -1]D/ | %32
[I:staff +1] z/ A,,/D,/F,/A,/[I:staff -1]D/[I:staff +1] D,,/A,,/D,/F,/A,/[I:staff -1]D/ | %33
[I:staff +1] z/ E,/A,/C/[I:staff -1]E/A/[I:staff +1] A,,/E,/A,/C/[I:staff -1]E/A/ | %34
[I:staff +1] z/ E,/A,/C/[I:staff -1]E/A/[I:staff +1] A,,/E,/A,/C/[I:staff -1]E/A/ | %35
[I:staff +1] z/ G,/C/[I:staff -1]E/G/c/[I:staff +1] C,/G,/C/[I:staff -1]E/G/c/ | %36
[I:staff +1] z/ D,/G,/B,/[I:staff -1]D/G/[I:staff +1] G,,/D,/G,/B,/[I:staff -1]D/G/ | %37
[I:staff +1] z/ E,/A,/C/[I:staff -1]E/A/[I:staff +1] A,,/E,/A,/C/[I:staff -1]E/A/ | %38
[I:staff +1] z/ C,/F,/A,/C/[I:staff -1]F/[I:staff +1] F,,/C,/F,/A,/C/[I:staff -1]F/ | %39
[I:staff +1] z/ G,/C/[I:staff -1]E/G/c/[I:staff +1] C,/G,/C/[I:staff -1]E/G/c/ | %40
[I:staff +1] z/ D,/G,/B,/[I:staff -1]D/G/[I:staff +1] G,,/D,/G,/B,/[I:staff -1]D/G/ | %41
[I:staff +1] z/ G,/C/[I:staff -1]E/G/c/[I:staff +1] C,/G,/C/[I:staff -1]E/G/c/ | %42
[I:staff +1] z/ G,/C/[I:staff -1]E/G/c/[I:staff +1] C,/G,/C/[I:staff -1]E/G/c/ | %43
[I:staff +1] z/ D,/G,/B,/[I:staff -1]D/G/[I:staff +1] G,,/D,/G,/B,/[I:staff -1]D/G/ | %44
[I:staff +1] z/ D,/G,/B,/[I:staff -1]D/G/[I:staff +1] G,,/D,/G,/B,/[I:staff -1]D/G/ | %45
[I:staff +1] z/ G,/C/[I:staff -1]E/G/c/[I:staff +1] C,/G,/C/[I:staff -1]E/G/c/ | %46
[I:staff +1] z/ C,/F,/A,/C/[I:staff -1]F/[I:staff +1] F,,/C,/F,/A,/C/[I:staff -1]F/ | %47
[I:staff +1] z/ G,/C/[I:staff -1]E/G/c/[I:staff +1] C,/G,/C/[I:staff -1]E/G/c/ | %48
[I:staff +1] z/ D,/G,/B,/[I:staff -1]D/G/[I:staff +1] G,,/D,/G,/B,/[I:staff -1]D/G/ | %49
[I:staff +1] z/ G,/C/[I:staff -1]E/G/c/[I:staff +1] C,/G,/C/[I:staff -1]E/G/c/ | %50
[I:staff +1] z/ D,/G,/B,/[I:staff -1]D/G/[I:staff +1] G,,/D,/G,/B,/[I:staff -1]D/G/ | %51
[I:staff +1] G,,/D,/G,/B,/[I:staff -1]D/G/[I:staff +1] G,,/D,/G,/B,/[I:staff -1]D/G/ | %52
[I:staff +1] C,/G,/C/[I:staff -1]E/G/c/[I:staff +1] C,/G,/C/[I:staff -1]E/G/c/ | %53
[I:staff +1] F,,/C,/F,/A,/[I:staff -1]C/F/[I:staff +1] F,,/C,/F,/A,/[I:staff -1]C/F/ | %54
[I:staff +1] C,/G,/C/[I:staff -1]E/G/c/[I:staff +1] C,/G,/C/[I:staff -1]E/G/c/ | %55
[I:staff +1] G,,/D,/G,/B,/[I:staff -1]D/G/[I:staff +1] G,,/D,/G,/B,/[I:staff -1]D/G/ | %56
[I:staff +1] C,/G,/C/[I:staff -1]E/G/c/[I:staff +1] C,/G,/C/[I:staff -1]E/G/c/ | %57
[I:staff +1] C,4 z2 |] %58
V:4
 [C,E,G,C]6 | [C,E,G,C]3- [C,E,G,C]- [C,E,G,C]2 | [C,E,G,C]2- [C,E,G,C]4 | !arpeggio![F,,F,A,C]6 | %4
 [C,E,G,C]3- [C,E,G,C]- [C,E,G,C]2 | [C,E,G,C]2- [C,E,G,C]4 | [C,E,G,C]6 | %7
 [G,,D,G,B,]3- [G,,D,G,B,]- [G,,D,G,B,]2 | [C,E,G,]2- [C,E,G,]4 | [C,E,G,]6 | %10
 [C,E,G,C]3- [C,E,G,C]- [C,E,G,C]2 | [C,E,G,C]2- [C,E,G,C]4 | [F,,F,A,C]6 | %13
 [C,E,G,C]3- [C,E,G,C]- [C,E,G,C]2 | [C,E,G,C]2- [C,E,G,C]4 | [E,G,B,]6 | %16
 [B,,^D,^F,B,]3- [B,,D,F,B,]- [B,,D,F,B,]2 | [E,G,B,]2- [E,G,B,]4 | [E,G,B,]6 | %19
 [G,,D,G,B,]3- [G,,D,G,B,]- [G,,D,G,B,]2 | [G,,D,G,B,]2- [G,,D,G,B,]4 | [C,E,G,C]6 | %22
 [C,E,G,C]3- [C,E,G,C]- [C,E,G,C]2 | [G,,D,G,B,]2- [G,,D,G,B,]4 | [G,,D,G,B,]6 | %25
 [C,E,G,C]3- [C,E,G,C]- [C,E,G,C]2 | [C,E,G,C]2- [C,E,G,C]4 | [A,,E,A,C]6 | %28
 [A,,E,A,C]3- [A,,E,A,C]- [A,,E,A,C]2 | [E,,E,G,B,]2- [E,,E,G,B,]4 | [E,,E,G,B,]6 | %31
 [D,,D,F,A,]3- [D,,D,F,A,]- [D,,D,F,A,]2 | [D,,D,F,A,]2- [D,,D,F,A,]4 | [A,,E,A,]6 | %34
 [A,,E,A,]3- [A,,E,A,]- [A,,E,A,]2 | [C,E,G,C]2- [C,E,G,C]4 | [G,,D,G,B,]6 | %37
 [A,,E,A,C]3- [A,,E,A,C]- [A,,E,A,C]2 | [F,,E,F,A,C]2- [F,,E,F,A,C]4 | [C,E,G,C]6 | %40
 [G,,D,G,B,]3- [G,,D,G,B,]- [G,,D,G,B,]2 | [C,E,G,C]2- [C,E,G,C]4 | [C,E,G,C]6 | %43
 [G,,D,G,B,]3- [G,,D,G,B,]- [G,,D,G,B,]2 | [G,,D,G,B,]2- [G,,D,G,B,]4 | [C,E,G,C]6 | %46
 !arpeggio![C,D,F,A,C]3- [C,D,F,A,C]- [C,D,F,A,C]2 | [C,E,G,C]2- [C,E,G,C]4 | %48
 !arpeggio![G,,D,G,B,]6 | [C,E,G,C]3- [C,E,G,C]- [C,E,G,C]2 | [G,,E,G,]2- [G,,E,G,]4 | G,,3 G,,3 | %52
 C,3 C,- C,2 | F,,2- F,, F,,3 | C,3 C,3 | G,,3 G,,- G,,2 | C,2- C, C,3 | x6 |] %58

